!!!SOCIAL_FUNCTION:	songs with the corn dance
!!!PDT:	1956
!!!OTL: No_10_Corn_Dance_Song_(f).krn
!!!LANG: Non-Tone
!!!LING_GROUP: Muskogean
!!!REG: Florida
**kern
*staff1
=1-
*clefF4
*k[b-e-a-]
*M3/4
4B-\
8G\
8r
8c\L
8c\J
=2||
*M2/4
2B-\
=3||
*M3/4
4B-\
4B-\
4B-\
=4||
*M2/4
2G\
=5||
*M3/4
4G\
8G\L
8E-\J
4G\
=6||
*M2/4
4E-\
8r
8B-\
=7
2B-\
=8||
*M3/4
16B-\LK
[8.G\J
4G\]
16A-\LK
8.G\J
=9||
*M2/4
8E-\
16r
16G\
8G\L
16E-\L
16E-\JJ
=10
4G\
4r
=11!|:
8.B-\L
16B-\Jk
8.G\L
16E-\Jk
=12
4.G\
16A-\LL
16G\JJ
=13
8.E-\L
16E-\Jk
8E-\L
8E-\J
=14
4E-\
8.r
16BB-/
=15
8E-\L
8E-\J
4E-\
=16
8.r
16B-\
8.G\L
16E-\Jk
=17
4.G\
16A-\LL
16G\JJ
=18
8.E-\L
16E-\Jk
8E-\L
8E-\J
=19
4.E-\
16r
16BB-/
=20||
*M3/4
8E-\L
8E-\J
4E-\
4r
=21
*M3/8
8B-\L
16.G\L
32E-\JK
8B-\J
=22||
*M3/4
4.B-\
8B-\
8B-\L
8B-\J
=23
4.G\
8G\
16.G\LL
32E-\K
16G\
16G\JJ
=24||
*M2/4
4E-\
8r
16B-\LL
16B-\JJ
=25||
*M3/4
4B-\
16B-\LK
8.G\J
16A-\LK
8.G\J
=26||
*M2/4
8.E-\L
16G\Jk
8.G\L
16E-\Jk
=27
4G\
4r
==:|!
*-
